src/assets/duotone/Bookmark.svg

<?xml version="1.0" encoding="UTF-8"?>
<svg width="24" height="24" viewBox="0 0 24 24" xmlns="http://www.w3.org/2000/svg">
 <path d="m16.19 2h-8.37c-3.65 0-5.82 2.17-5.82 5.81v8.37c0 3.64 2.17 5.81 5.81 5.81h8.37c3.64 0 5.81-2.17 5.81-5.81v-8.37c0.01-3.64-2.16-5.81-5.8-5.81z" opacity=".4"/>
 <path d="m16.25 2.0002v10.42c0 0.64-0.19 1.12-0.52 1.31-0.34 0.2-0.88 0.1-1.48-0.26l-1.32-0.79c-0.51-0.31-1.35-0.31-1.86 0l-1.32 0.79c-0.6 0.36-1.14 0.45-1.48 0.26-0.33-0.19-0.52-0.67-0.52-1.31v-10.42c0.02327-1.8e-4 0.04661-2.7e-4 0.07-2.7e-4h8.37c0.02 0 0.04 7e-5 0.06 2e-4z" clip-rule="evenodd" fill-rule="evenodd"/>
</svg>

<svg width="24" height="24" viewBox="0 0 24 24"  xmlns="http://www.w3.org/2000/svg">
<path opacity="0.4" d="M16.19 2H7.82C4.17 2 2 4.17 2 7.81V16.18C2 19.82 4.17 21.99 7.81 21.99H16.18C19.82 21.99 21.99 19.82 21.99 16.18V7.81C22 4.17 19.83 2 16.19 2Z" />
<path fill-rule="evenodd" clip-rule="evenodd" d="M16.25 2.0002V12.42C16.25 13.06 16.06 13.54 15.73 13.73C15.39 13.93 14.85 13.83 14.25 13.47L12.93 12.68C12.42 12.37 11.58 12.37 11.07 12.68L9.75 13.47C9.15 13.83 8.61 13.92 8.27 13.73C7.94 13.54 7.75 13.06 7.75 12.42V2.00027C7.77327 2.00009 7.79661 2 7.82 2H16.19C16.21 2 16.23 2.00007 16.25 2.0002Z" />
</svg>
